svgs/regular/pear.svg

<svg xmlns="http://www.w3.org/2000/svg" viewBox="0 0 512 512"><!-- Font Awesome Pro 6.0.0-alpha2 by @fontawesome - https://fontawesome.com License - https://fontawesome.com/license (Commercial License) --><path d="M512 24C512 10.291 500.79 0 488 0C481.86 0 475.719 2.344 471.031 7.031L422.498 55.564C400.182 39.947 374.391 32 348.248 32C311.49 32 274.455 46.75 246.944 74.352C217.846 103.543 180.914 123.223 141.219 134.102C108.154 143.165 0 192.152 0 319.536C0 426.24 86.963 512 192.246 512C229.931 512 342.307 492.221 376.408 373.152C411.747 249.725 479.65 261.186 479.65 166.232C479.65 139.546 471.767 112.822 456.1 89.838L504.969 40.969C509.656 36.281 512 30.141 512 24ZM431.999 165.372C431.999 235.54 368.527 226.303 330.264 359.936C318.457 401.16 274.918 464 192.246 464C129.328 464 47.978 413.335 47.978 319.538C47.978 252.454 93.824 196.862 153.906 180.395C278.527 146.238 275.143 80 348.248 80C358.881 80 373.416 82.125 387.955 90.107L367.031 111.031C362.344 115.719 360 121.859 360 128C360 134.861 365.368 152 384 152C390.156 152 396.281 149.656 400.969 144.969L421.529 124.408C425.561 131.89 431.999 146.164 431.999 165.372Z"/></svg>

<svg xmlns="http://www.w3.org/2000/svg" viewBox="0 0 512 512"><!--! Font Awesome Pro 6.0.0-alpha3 by @fontawesome - https://fontawesome.com License - https://fontawesome.com/license (Commercial License) --><path d="M512 24C512 10.29 500.8 0 488 0c-6.141 0-12.28 2.344-16.97 7.031L422.4 55.62C400.1 40 374.4 32 348.2 32C311.5 32 274.5 46.75 246.9 74.35C217.8 103.5 180.9 123.2 141.2 134.1c-33.07 9.063-141.2 58.05-141.2 185.4c0 106.7 86.96 192.5 192.2 192.5c37.68 0 150.1-19.78 184.2-138.8c35.34-123.4 103.2-111.1 103.2-206.9c0-26.69-7.883-53.41-23.55-76.39l48.87-48.87C509.7 36.28 512 30.14 512 24zM431.1 165.4c0 70.17-63.47 60.93-101.7 194.6C318.5 401.2 274.9 464 192.2 464c-62.92 0-144.3-50.66-144.3-144.5c0-67.08 45.85-122.7 105.9-139.1C278.5 146.2 275.1 80 348.2 80c10.63 0 25.17 2.125 39.71 10.11l-20.92 20.92C362.3 115.7 360 121.9 360 128c0 6.861 5.368 24 24 24c6.156 0 12.28-2.344 16.97-7.031l20.56-20.56C425.6 131.9 431.1 146.2 431.1 165.4z"/></svg>
